en/_assets/tracker/svg/mermaid.svg

<svg xmlns="http://www.w3.org/2000/svg" width="20" height="20" fill="currentColor" aria-hidden="true" class="yc-icon ye-command-menu__item-icon"><svg xmlns="http://www.w3.org/2000/svg" style="fill-rule:evenodd;clip-rule:evenodd;stroke-linejoin:round;stroke-miterlimit:2" viewBox="0 0 491 491"><path d="M490.16 405.55c0 46.698-37.912 84.61-84.61 84.61H84.61C37.912 490.16 0 452.248 0 405.55V84.61C0 37.912 37.912 0 84.61 0h320.94c46.698 0 84.61 37.912 84.61 84.61Zm-82.68-294.37c-71.893-3.077-137.907 41.158-162.4 108.82-24.493-67.662-90.507-111.897-162.4-108.82-2.395 57.049 24.897 111.452 72.06 143.64 24.168 16.599 38.61 44.131 38.53 73.45v50.86H296.9v-50.86c-.084-29.317 14.355-56.85 38.52-73.45 47.176-32.176 74.472-86.587 72.06-143.64Z"/></svg></svg>

<svg xmlns="http://www.w3.org/2000/svg" xmlns:xlink="http://www.w3.org/1999/xlink" width="20" height="20" class="yc-icon ye-command-menu__item-icon" fill="currentColor" stroke="none" aria-hidden="true"><svg xmlns="http://www.w3.org/2000/svg" viewBox="0 0 491 491" style="fill-rule: evenodd; clip-rule: evenodd; stroke-linejoin: round; stroke-miterlimit: 2;"><path d="M 490.16 405.55 C 490.16 452.248 452.248 490.16 405.55 490.16 L 84.61 490.16 C 37.912 490.16 0 452.248 0 405.55 L 0 84.61 C 0 37.912 37.912 0 84.61 0 L 405.55 0 C 452.248 0 490.16 37.912 490.16 84.61 Z M 407.48 111.18 C 335.587 108.103 269.573 152.338 245.08 220 C 220.587 152.338 154.573 108.103 82.68 111.18 C 80.285 168.229 107.577 222.632 154.74 254.82 C 178.908 271.419 193.35 298.951 193.27 328.27 L 193.27 379.13 L 296.9 379.13 L 296.9 328.27 C 296.816 298.953 311.255 271.42 335.42 254.82 C 382.596 222.644 409.892 168.233 407.48 111.18 Z" fill="currentColor"></path></svg></svg>
